;Generated with Cura_SteamEngine 15.01
; Default start code
G28 ; Home extruder
G1 Z15 F100
M107 ; Turn off fan
G90 ; Absolute positioning
M82 ; Extruder in absolute mode
M190 S50
; Activate all used extruder
M104 T0 S210
G92 E0 ; Reset extruder position
; Wait for all used extruders to reach temperature
M109 T0 S210
;Layer count: 50
;LAYER:0
M107
G0 F9000 X9.284 Y11.600 Z0.300
;TYPE:SKIRT
G1 F1800 X10.854 Y10.249 E0.10334
G1 X12.616 Y9.160 E0.20668
G1 X14.275 Y8.465 E0.29641
G1 X14.553 Y8.345 E0.31152
G1 X16.261 Y7.936 E0.39914
G1 X16.568 Y7.857 E0.41496
G1 X18.491 Y7.707 E0.51119
G1 X20.656 Y7.703 E0.61920
G1 X98.784 Y7.703 E4.51702
G1 X100.467 Y7.834 E4.60124
G1 X100.757 Y7.863 E4.61578
G1 X102.480 Y8.276 E4.70418
G1 X102.764 Y8.349 E4.71881
G1 X104.409 Y9.030 E4.80763
G1 X104.678 Y9.146 E4.82225
G1 X106.383 Y10.192 E4.92204
G1 X107.961 Y11.527 E5.02516
G1 X109.313 Y13.098 E5.12857
G1 X110.402 Y14.860 E5.23191
G1 X111.203 Y16.772 E5.33533
G1 X111.626 Y18.505 E5.42433
G1 X111.705 Y18.813 E5.44019
G1 X111.855 Y20.735 E5.53637
G1 X111.859 Y22.900 E5.64438
G1 X111.859 Y101.028 E9.54221
G1 X111.728 Y102.711 E9.62643
G1 X111.698 Y103.002 E9.64102
G1 X111.285 Y104.725 E9.72942
G1 X111.212 Y105.008 E9.74400
G1 X110.447 Y106.857 E9.84383
G1 X109.375 Y108.623 E9.94690
G1 X108.034 Y110.206 E10.05040
G1 X106.463 Y111.557 E10.15377
G1 X104.702 Y112.646 E10.25707
G1 X103.022 Y113.350 E10.34795
G1 X102.764 Y113.461 E10.36196
G1 X101.057 Y113.870 E10.44954
G1 X100.749 Y113.949 E10.46540
G1 X98.827 Y114.099 E10.56158
G1 X96.662 Y114.103 E10.66959
G1 X18.534 Y114.103 E14.56741
G1 X16.850 Y113.972 E14.65168
G1 X16.560 Y113.943 E14.66622
G1 X14.837 Y113.530 E14.75462
G1 X14.553 Y113.457 E14.76925
G1 X12.908 Y112.776 E14.85807
G1 X12.641 Y112.660 E14.87260
G1 X10.934 Y111.614 E14.97248
G1 X9.358 Y110.279 E15.07552
G1 X8.004 Y108.708 E15.17899
G1 X6.915 Y106.945 E15.28237
G1 X6.212 Y105.266 E15.37319
G1 X6.101 Y105.008 E15.38720
G1 X5.692 Y103.301 E15.47477
G1 X5.613 Y102.993 E15.49063
G1 X5.463 Y101.071 E15.58682
G1 X5.459 Y98.906 E15.69483
G1 X5.459 Y20.778 E19.59265
G1 X5.590 Y19.095 E19.67687
G1 X5.619 Y18.805 E19.69141
G1 X6.032 Y17.082 E19.77980
G1 X6.105 Y16.798 E19.79443
G1 X6.786 Y15.153 E19.88326
G1 X6.902 Y14.885 E19.89783
G1 X7.947 Y13.178 E19.99768
G1 X9.284 Y11.600 E20.10087
G1 F2400 E16.10087
G0 F9000 X11.991 Y14.285
;TYPE:WALL-INNER
G1 F2400 E20.10087
G1 F1800 X13.106 Y13.325 E20.17427
G1 X14.362 Y12.548 E20.24796
G1 X15.754 Y11.965 E20.32325
G1 X17.190 Y11.620 E20.39693
G1 X18.641 Y11.507 E20.46954
G1 X20.660 Y11.503 E20.57027
G1 X98.638 Y11.503 E24.46060
G1 X100.119 Y11.619 E24.53472
G1 X101.564 Y11.964 E24.60884
G1 X102.923 Y12.527 E24.68222
G1 X104.147 Y13.278 E24.75387
G1 X105.278 Y14.235 E24.82778
G1 X106.237 Y15.350 E24.90116
G1 X107.014 Y16.606 E24.97484
G1 X107.582 Y17.962 E25.04819
G1 X107.942 Y19.438 E25.12398
G1 X108.055 Y20.885 E25.19639
G1 X108.059 Y22.903 E25.29707
G1 X108.059 Y100.882 E29.18746
G1 X107.943 Y102.367 E29.26177
G1 X107.599 Y103.802 E29.33539
G1 X107.048 Y105.134 E29.40731
G1 X106.283 Y106.393 E29.48081
G1 X105.327 Y107.521 E29.55458
G1 X104.211 Y108.481 E29.62802
G1 X102.956 Y109.258 E29.70166
G1 X101.563 Y109.841 E29.77700
G1 X100.127 Y110.186 E29.85068
G1 X98.677 Y110.299 E29.92324
G1 X96.658 Y110.303 E30.02397
G1 X18.680 Y110.303 E33.91431
G1 X17.198 Y110.187 E33.98847
G1 X15.753 Y109.842 E34.06259
G1 X14.397 Y109.280 E34.13582
G1 X13.169 Y108.527 E34.20768
G1 X12.044 Y107.574 E34.28124
G1 X11.075 Y106.450 E34.35528
G1 X10.306 Y105.203 E34.42837
G1 X9.720 Y103.805 E34.50400
G1 X9.376 Y102.371 E34.57757
G1 X9.263 Y100.921 E34.65013
G1 X9.259 Y98.903 E34.75081
G1 X9.259 Y20.924 E38.64120
G1 X9.375 Y19.443 E38.71531
G1 X9.720 Y17.998 E38.78943
G1 X10.284 Y16.638 E38.86288
G1 X11.034 Y15.413 E38.93454
G1 X11.991 Y14.285 E39.00834
G0 F9000 X20.138 Y22.939
G1 F1800 X19.685 Y23.582 E39.04758
G1 X19.347 Y24.293 E39.08686
G1 X19.136 Y25.052 E39.12616
G1 X19.057 Y25.834 E39.16538
G1 X19.112 Y26.619 E39.20464
G1 X19.301 Y27.384 E39.24395
G1 X19.617 Y28.104 E39.28318
G1 X20.051 Y28.761 E39.32246
G1 X21.420 Y30.212 E39.42199
G1 X22.116 Y31.245 E39.48413
G1 X22.642 Y32.407 E39.54776
G1 X22.953 Y33.612 E39.60985
G1 X23.056 Y34.840 E39.67133
G1 X23.059 Y36.149 E39.73664
G1 X23.059 Y86.933 E42.27026
G1 X22.952 Y88.197 E42.33355
G1 X22.643 Y89.397 E42.39537
G1 X22.133 Y90.537 E42.45768
G1 X21.463 Y91.543 E42.51798
G1 X20.580 Y92.485 E42.58239
G1 X20.051 Y93.045 E42.62083
G1 X19.617 Y93.702 E42.66011
G1 X19.301 Y94.423 E42.69939
G1 X19.112 Y95.187 E42.73865
G1 X19.057 Y95.972 E42.77791
G1 X19.136 Y96.754 E42.81712
G1 X19.347 Y97.513 E42.85643
G1 X19.685 Y98.224 E42.89570
G1 X20.138 Y98.867 E42.93494
G1 X20.694 Y99.424 E42.97421
G1 X21.337 Y99.877 E43.01345
G1 X22.048 Y100.214 E43.05270
G1 X22.806 Y100.426 E43.09197
G1 X23.590 Y100.505 E43.13128
G1 X24.375 Y100.449 E43.17055
G1 X25.138 Y100.260 E43.20976
G1 X25.860 Y99.945 E43.24906
G1 X26.516 Y99.511 E43.28830
G1 X27.971 Y98.139 E43.38808
G1 X28.996 Y97.447 E43.44978
G1 X30.164 Y96.918 E43.51375
G1 X31.368 Y96.609 E43.57576
G1 X32.596 Y96.506 E43.63724
G1 X33.906 Y96.503 E43.70260
G1 X84.688 Y96.503 E46.23612
G1 X85.954 Y96.610 E46.29951
G1 X87.151 Y96.917 E46.36116
G1 X88.292 Y97.428 E46.42353
G1 X89.298 Y98.099 E46.48386
G1 X90.240 Y98.983 E46.54831
G1 X90.801 Y99.511 E46.58675
G1 X91.458 Y99.945 E46.62603
G1 X92.178 Y100.260 E46.66524
G1 X92.942 Y100.449 E46.70451
G1 X93.728 Y100.505 E46.74382
G1 X94.511 Y100.426 E46.78308
G1 X95.269 Y100.214 E46.82235
G1 X95.980 Y99.877 E46.86160
G1 X96.623 Y99.424 E46.90084
G1 X97.180 Y98.867 E46.94014
G1 X97.633 Y98.224 E46.97938
G1 X97.970 Y97.513 E47.01864
G1 X98.182 Y96.754 E47.05796
G1 X98.260 Y95.972 E47.09716
G1 X98.205 Y95.187 E47.13642
G1 X98.016 Y94.424 E47.17564
G1 X97.701 Y93.702 E47.21494
G1 X97.266 Y93.045 E47.25425
G1 X95.897 Y91.595 E47.35374
G1 X95.201 Y90.562 E47.41588
G1 X94.674 Y89.398 E47.47963
G1 X94.365 Y88.194 E47.54164
G1 X94.262 Y86.966 E47.60312
G1 X94.259 Y85.657 E47.66843
G1 X94.259 Y34.873 E50.20205
G1 X94.366 Y33.608 E50.26539
G1 X94.673 Y32.410 E50.32709
G1 X95.184 Y31.269 E50.38946
G1 X95.854 Y30.264 E50.44972
G1 X96.737 Y29.321 E50.51418
G1 X97.266 Y28.761 E50.55261
G1 X97.701 Y28.104 E50.59192
G1 X98.016 Y27.384 E50.63113
G1 X98.205 Y26.619 E50.67044
G1 X98.260 Y25.834 E50.70970
G1 X98.182 Y25.052 E50.74891
G1 X97.970 Y24.293 E50.78823
G1 X97.633 Y23.582 E50.82748
G1 X97.180 Y22.939 E50.86672
G1 X96.623 Y22.382 E50.90602
G1 X95.980 Y21.929 E50.94526
G1 X95.269 Y21.592 E50.98452
G1 X94.511 Y21.380 E51.02378
G1 X93.728 Y21.301 E51.06305
G1 X92.942 Y21.357 E51.10236
G1 X92.178 Y21.546 E51.14163
G1 X91.458 Y21.861 E51.18083
G1 X90.801 Y22.295 E51.22012
G1 X89.346 Y23.667 E51.31989
G1 X88.321 Y24.359 E51.38159
G1 X87.153 Y24.888 E51.44556
G1 X85.950 Y25.197 E51.50753
G1 X84.721 Y25.300 E51.56906
G1 X83.411 Y25.303 E51.63441
G1 X32.629 Y25.303 E54.16794
G1 X31.364 Y25.196 E54.23127
G1 X30.166 Y24.889 E54.29297
G1 X29.025 Y24.378 E54.35535
G1 X28.019 Y23.707 E54.41568
G1 X27.077 Y22.823 E54.48013
G1 X26.516 Y22.295 E54.51856
G1 X25.860 Y21.861 E54.55780
G1 X25.138 Y21.546 E54.59710
G1 X24.375 Y21.357 E54.63632
G1 X23.590 Y21.301 E54.67558
G1 X22.806 Y21.380 E54.71489
G1 X22.048 Y21.592 E54.75416
G1 X21.337 Y21.929 E54.79342
G1 X20.694 Y22.382 E54.83266
G1 X20.138 Y22.939 E54.87192
G0 F9000 X20.445 Y23.198
;TYPE:WALL-OUTER
G1 F1800 X20.032 Y23.785 E54.90773
G1 X19.723 Y24.434 E54.94359
G1 X19.531 Y25.126 E54.97942
G1 X19.458 Y25.840 E55.01523
G1 X19.509 Y26.556 E55.05104
G1 X19.681 Y27.255 E55.08695
G1 X19.970 Y27.912 E55.12276
G1 X20.366 Y28.512 E55.15863
G1 X21.731 Y29.959 E55.25787
G1 X22.469 Y31.052 E55.32367
G1 X23.019 Y32.269 E55.39030
G1 X23.344 Y33.526 E55.45507
G1 X23.456 Y34.813 E55.51952
G1 X23.459 Y86.959 E58.12110
G1 X23.349 Y88.261 E58.18628
G1 X23.026 Y89.514 E58.25084
G1 X22.483 Y90.734 E58.31746
G1 X21.779 Y91.790 E58.38078
G1 X20.365 Y93.295 E58.48381
G1 X19.970 Y93.894 E58.51960
G1 X19.681 Y94.552 E58.55546
G1 X19.509 Y95.250 E58.59132
G1 X19.458 Y95.966 E58.62713
G1 X19.531 Y96.680 E58.66294
G1 X19.723 Y97.372 E58.69877
G1 X20.032 Y98.021 E58.73463
G1 X20.445 Y98.608 E58.77044
G1 X20.953 Y99.117 E58.80632
G1 X21.540 Y99.530 E58.84212
G1 X22.189 Y99.838 E58.87796
G1 X22.881 Y100.031 E58.91381
G1 X23.596 Y100.104 E58.94966
G1 X24.312 Y100.052 E58.98548
G1 X25.009 Y99.880 E59.02130
G1 X25.668 Y99.592 E59.05718
G1 X26.267 Y99.196 E59.09300
G1 X27.717 Y97.828 E59.19245
G1 X28.808 Y97.092 E59.25811
G1 X30.025 Y96.542 E59.32474
G1 X31.282 Y96.218 E59.38950
G1 X32.574 Y96.106 E59.45420
G1 X84.709 Y96.103 E62.05523
G1 X86.017 Y96.213 E62.12072
G1 X87.272 Y96.536 E62.18537
G1 X88.489 Y97.078 E62.25183
G1 X89.545 Y97.783 E62.31518
G1 X91.051 Y99.197 E62.41824
G1 X91.650 Y99.592 E62.45404
G1 X92.307 Y99.880 E62.48983
G1 X93.005 Y100.052 E62.52569
G1 X93.722 Y100.104 E62.56156
G1 X94.436 Y100.031 E62.59736
G1 X95.128 Y99.838 E62.63321
G1 X95.777 Y99.530 E62.66905
G1 X96.364 Y99.117 E62.70485
G1 X96.873 Y98.608 E62.74077
G1 X97.286 Y98.021 E62.77657
G1 X97.594 Y97.372 E62.81241
G1 X97.787 Y96.680 E62.84826
G1 X97.859 Y95.966 E62.88406
G1 X97.808 Y95.250 E62.91987
G1 X97.636 Y94.553 E62.95569
G1 X97.348 Y93.894 E62.99157
G1 X96.951 Y93.294 E63.02746
G1 X95.586 Y91.848 E63.12667
G1 X94.848 Y90.754 E63.19251
G1 X94.298 Y89.537 E63.25913
G1 X93.974 Y88.280 E63.32390
G1 X93.862 Y86.993 E63.38835
G1 X93.859 Y34.847 E65.98992
G1 X93.969 Y33.545 E66.05511
G1 X94.291 Y32.292 E66.11965
G1 X94.834 Y31.072 E66.18628
G1 X95.538 Y30.017 E66.24955
G1 X96.952 Y28.511 E66.35261
G1 X97.348 Y27.912 E66.38844
G1 X97.636 Y27.255 E66.42423
G1 X97.808 Y26.556 E66.46014
G1 X97.859 Y25.840 E66.49595
G1 X97.787 Y25.126 E66.53176
G1 X97.594 Y24.434 E66.56760
G1 X97.286 Y23.785 E66.60344
G1 X96.873 Y23.198 E66.63925
G1 X96.364 Y22.689 E66.67516
G1 X95.777 Y22.276 E66.71097
G1 X95.128 Y21.968 E66.74681
G1 X94.436 Y21.775 E66.78265
G1 X93.722 Y21.702 E66.81845
G1 X93.005 Y21.754 E66.85432
G1 X92.307 Y21.926 E66.89018
G1 X91.650 Y22.214 E66.92597
G1 X91.050 Y22.610 E66.96184
G1 X89.600 Y23.978 E67.06129
G1 X88.509 Y24.714 E67.12695
G1 X87.292 Y25.264 E67.19358
G1 X86.036 Y25.588 E67.25829
G1 X84.743 Y25.700 E67.32304
G1 X32.608 Y25.703 E69.92407
G1 X31.301 Y25.593 E69.98951
G1 X30.045 Y25.270 E70.05421
G1 X28.828 Y24.728 E70.12067
G1 X27.772 Y24.023 E70.18402
G1 X26.266 Y22.609 E70.28708
G1 X25.668 Y22.214 E70.32284
G1 X25.009 Y21.926 E70.35872
G1 X24.312 Y21.754 E70.39453
G1 X23.596 Y21.702 E70.43035
G1 X22.881 Y21.775 E70.46621
G1 X22.189 Y21.968 E70.50205
G1 X21.540 Y22.276 E70.53789
G1 X20.953 Y22.689 E70.57370
G1 X20.445 Y23.198 E70.60957
G0 F9000 X20.202 Y23.025
G0 X9.158 Y20.919
G0 X8.859 Y20.903
G1 F1800 X8.977 Y19.399 E70.68484
G1 X8.979 Y19.377 E70.68594
G1 X9.332 Y17.902 E70.76161
G1 X9.917 Y16.479 E70.83837
G1 X9.927 Y16.455 E70.83966
G1 X10.710 Y15.177 E70.91444
G1 X11.705 Y14.003 E70.99121
G1 X12.871 Y13.000 E71.06795
G1 X14.179 Y12.191 E71.14468
G1 X15.609 Y11.592 E71.22203
G1 X17.103 Y11.230 E71.29872
G1 X18.622 Y11.107 E71.37475
G1 X98.656 Y11.103 E75.36766
G1 X100.163 Y11.221 E75.44308
G1 X100.185 Y11.223 E75.44418
G1 X101.663 Y11.577 E75.52000
G1 X103.083 Y12.161 E75.59660
G1 X103.109 Y12.172 E75.59801
G1 X104.383 Y12.953 E75.67257
G1 X105.559 Y13.949 E75.74945
G1 X106.562 Y15.115 E75.82618
G1 X107.371 Y16.423 E75.90291
G1 X107.964 Y17.838 E75.97946
G1 X108.332 Y19.349 E76.05704
G1 X108.455 Y20.863 E76.13283
G1 X108.459 Y100.903 E80.12604
G1 X108.341 Y102.407 E80.20130
G1 X108.338 Y102.436 E80.20276
G1 X107.986 Y103.904 E80.27807
G1 X107.404 Y105.317 E80.35431
G1 X106.607 Y106.630 E80.43094
G1 X105.613 Y107.803 E80.50765
G1 X104.446 Y108.806 E80.58442
G1 X103.139 Y109.615 E80.66111
G1 X101.708 Y110.214 E80.73850
G1 X100.214 Y110.576 E80.81520
G1 X98.696 Y110.699 E80.89118
G1 X18.662 Y110.703 E84.88409
G1 X17.154 Y110.585 E84.95956
G1 X17.132 Y110.583 E84.96066
G1 X15.654 Y110.229 E85.03648
G1 X14.233 Y109.644 E85.11315
G1 X12.933 Y108.851 E85.18912
G1 X11.762 Y107.860 E85.26565
G1 X10.753 Y106.688 E85.34281
G1 X9.947 Y105.383 E85.41933
G1 X9.348 Y103.952 E85.49673
G1 X8.986 Y102.458 E85.57342
G1 X8.863 Y100.943 E85.64925
G1 X8.859 Y20.903 E89.64246
G0 F9000 X9.399 Y20.996
;TYPE:SKIN
G1 F1800 X22.886 Y34.483 E90.59404
G0 F9000 X22.916 Y35.078
G1 F1800 X9.399 Y21.561 E91.54774
G0 F9000 X9.399 Y22.127
G1 F1800 X22.916 Y35.644 E92.50144
G0 F9000 X22.916 Y36.210
G1 F1800 X9.399 Y22.693 E93.45514
G0 F9000 X9.399 Y23.258
G1 F1800 X22.916 Y36.775 E94.40883
G0 F9000 X22.916 Y37.341
G1 F1800 X9.399 Y23.824 E95.36253
G0 F9000 X9.399 Y24.390
G1 F1800 X22.916 Y37.907 E96.31623
G0 F9000 X22.916 Y38.472
G1 F1800 X9.399 Y24.955 E97.26993
G0 F9000 X9.399 Y25.521
G1 F1800 X22.916 Y39.038 E98.22362
G0 F9000 X22.916 Y39.604
G1 F1800 X9.399 Y26.087 E99.17732
G0 F9000 X9.399 Y26.652
G1 F1800 X22.916 Y40.170 E100.13105
G0 F9000 X22.916 Y40.735
G1 F1800 X9.399 Y27.218 E101.08475
G0 F9000 X9.399 Y27.784
G1 F1800 X22.916 Y41.301 E102.03845
G0 F9000 X22.916 Y41.867
G1 F1800 X9.399 Y28.350 E102.99215
G0 F9000 X9.399 Y28.915
G1 F1800 X22.916 Y42.432 E103.94584
G0 F9000 X22.916 Y42.998
G1 F1800 X9.399 Y29.481 E104.89954
G0 F9000 X9.399 Y30.047
G1 F1800 X22.916 Y43.564 E105.85324
G0 F9000 X22.916 Y44.129
G1 F1800 X9.399 Y30.612 E106.80694
G0 F9000 X9.399 Y31.178
G1 F1800 X22.916 Y44.695 E107.76063
G0 F9000 X22.917 Y45.261
G1 F1800 X9.399 Y31.744 E108.71437
G0 F9000 X9.399 Y32.309
G1 F1800 X22.917 Y45.827 E109.66813
G0 F9000 X22.917 Y46.393
G1 F1800 X9.399 Y32.875 E110.62190
G0 F9000 X9.399 Y33.441
G1 F1800 X22.917 Y46.958 E111.57563
G0 F9000 X22.917 Y47.524
G1 F1800 X9.399 Y34.006 E112.52940
G0 F9000 X9.399 Y34.572
G1 F1800 X22.917 Y48.090 E113.48317
G0 F9000 X22.917 Y48.656
G1 F1800 X9.399 Y35.138 E114.43694
G0 F9000 X9.399 Y35.703
G1 F1800 X22.917 Y49.221 E115.39071
G0 F9000 X22.917 Y49.787
G1 F1800 X9.399 Y36.269 E116.34447
G0 F9000 X9.399 Y36.835
G1 F1800 X22.917 Y50.353 E117.29824
G0 F9000 X22.917 Y50.918
G1 F1800 X9.400 Y37.401 E118.25194
G0 F9000 X9.400 Y37.967
G1 F1800 X22.917 Y51.484 E119.20564
G0 F9000 X22.917 Y52.050
G1 F1800 X9.400 Y38.533 E120.15933
G0 F9000 X9.400 Y39.098
G1 F1800 X22.917 Y52.615 E121.11303
G0 F9000 X22.917 Y53.181
G1 F1800 X9.400 Y39.664 E122.06673
G0 F9000 X22.834 Y33.865
G1 F1800 X9.434 Y20.465 E123.01217
G0 F9000 X9.741 Y18.509
G1 F1800 X19.670 Y28.438 E123.71271
G0 F9000 X19.148 Y27.350
G1 F1800 X9.849 Y18.052 E124.36877
G0 F9000 X10.014 Y17.651
G1 F1800 X18.972 Y26.609 E125.00081
G0 F9000 X18.928 Y25.999
G1 F1800 X10.180 Y17.251 E125.61803
G0 F9000 X10.346 Y16.851
G1 F1800 X18.954 Y25.460 E126.22540
G0 F9000 X19.017 Y24.957
G1 F1800 X10.542 Y16.482 E126.82336
G0 F9000 X10.757 Y16.131
G1 F1800 X19.140 Y24.514 E127.41483
G0 F9000 X19.287 Y24.095
G1 F1800 X10.972 Y15.781 E128.00146
G0 F9000 X11.195 Y15.438
G1 F1800 X19.468 Y23.711 E128.58517
G0 F9000 X19.675 Y23.352
G1 F1800 X11.455 Y15.132 E129.16513
G0 F9000 X11.714 Y14.825
G1 F1800 X19.909 Y23.020 E129.74333
G0 F9000 X20.165 Y22.711
G1 F1800 X11.974 Y14.519 E130.32129
G0 F9000 X12.259 Y14.239
G1 F1800 X20.448 Y22.428 E130.89906
G0 F9000 X20.753 Y22.167
G1 F1800 X12.563 Y13.977 E131.47691
G0 F9000 X12.867 Y13.715
G1 F1800 X21.085 Y21.933 E132.05674
G0 F9000 X21.440 Y21.723
G1 F1800 X13.171 Y13.454 E132.64016
G0 F9000 X13.517 Y13.234
G1 F1800 X21.824 Y21.542 E133.22630
G0 F9000 X22.241 Y21.392
G1 F1800 X13.867 Y13.018 E133.81713
G0 F9000 X14.216 Y12.802
G1 F1800 X22.683 Y21.269 E134.41452
G0 F9000 X23.181 Y21.201
G1 F1800 X14.584 Y12.604 E135.02109
G0 F9000 X14.983 Y12.438
G1 F1800 X23.714 Y21.168 E135.63707
G0 F9000 X24.324 Y21.213
G1 F1800 X15.383 Y12.271 E136.26794
G0 F9000 X15.781 Y12.104
G1 F1800 X25.058 Y21.381 E136.92249
G0 F9000 X26.085 Y21.842
G1 F1800 X16.235 Y11.993 E137.61742
G0 F9000 X16.691 Y11.883
G1 F1800 X29.006 Y24.198 E138.48631
G0 F9000 X30.063 Y24.689
G1 F1800 X17.148 Y11.774 E139.39753
G0 F9000 X17.663 Y11.723
G1 F1800 X30.861 Y24.921 E140.32872
G0 F9000 X31.578 Y25.073
