; generated by Slic3r Prusa Edition 1.40.0-beta+win64 on 2018-06-12 at 11:58:38

; 

; external perimeters extrusion width = 0.45mm
; perimeters extrusion width = 0.45mm
; infill extrusion width = 0.45mm
; solid infill extrusion width = 0.45mm
; top infill extrusion width = 0.45mm
; first layer extrusion width = 0.42mm

M107
M115 U3.1.0 ; tell printer latest fw version
M201 X9000 Y9000 Z500 E10000 ; sets maximum accelerations, mm/sec^2
M203 X500 Y500 Z12 E120 ; sets maximum feedrates, mm/sec
M204 S1500 T1500 ; sets acceleration (S) and retract acceleration (T)
M205 X10 Y10 Z0.2 E2.5 ; sets the jerk limits, mm/sec
M205 S0 T0 ; sets the minimum extruding and travel feed rate, mm/sec
M83  ; extruder relative mode
M104 S215 ; set extruder temp
M140 S60 ; set bed temp
M190 S60 ; wait for bed temp
M109 S215 ; wait for extruder temp
G28 W ; home all without mesh bed level
G80 ; mesh bed leveling
G1 Y-3.0 F1000.0 ; go outside print area
G92 E0.0
G1 X60.0 E9.0  F1000.0 ; intro line
G1 X100.0 E12.5  F1000.0 ; intro line
G92 E0.0
M900 K30; Filament gcode
G21 ; set units to millimeters
G90 ; use absolute coordinates
M83 ; use relative distances for extrusion
;BEFORE_LAYER_CHANGE
G92 E0.0
;0.2


G1 E-0.80000 F2100.00000
G1 Z0.600 F10800.000
;AFTER_LAYER_CHANGE
;0.2
G1 X83.427 Y68.452
G1 Z0.200
G1 E0.80000 F2100.00000
M204 S1000
G1 F1800
G1 X85.677 Y65.879 E0.10716
G1 X88.454 Y63.426 E0.11619
G1 X91.402 Y61.456 E0.11117
G1 X94.468 Y59.939 E0.10727
G1 X98.073 Y58.712 E0.11938
G1 X101.454 Y58.044 E0.10807
G1 X104.959 Y57.812 E0.11014
G1 X145.004 Y57.811 E1.25557
G1 X148.685 Y58.066 E0.11571
G1 X152.036 Y58.738 E0.10716
G1 X155.271 Y59.831 E0.10704
G1 X158.587 Y61.450 E0.11573
G1 X161.551 Y63.429 E0.11174
G1 X164.230 Y65.780 E0.11174
G1 X166.651 Y68.561 E0.11561
G1 X168.546 Y71.405 E0.10716
G1 X170.061 Y74.468 E0.10716
G1 X171.249 Y77.917 E0.11436
G1 X171.955 Y81.447 E0.11289
G1 X172.188 Y84.956 E0.11025
G1 X172.186 Y125.099 E1.25866
G1 X171.956 Y128.552 E0.10851
G1 X171.260 Y132.043 E0.11162
G1 X170.118 Y135.407 E0.11139
G1 X168.535 Y138.613 E0.11208
G1 X166.571 Y141.551 E0.11082
G1 X164.228 Y144.222 E0.11140
G1 X161.555 Y146.567 E0.11151
G1 X158.716 Y148.470 E0.10716
G1 X155.275 Y150.168 E0.12029
G1 X152.034 Y151.263 E0.10728
G1 X148.542 Y151.957 E0.11163
G1 X145.011 Y152.189 E0.11094
G1 X104.869 Y152.185 E1.25865
G1 X101.448 Y151.956 E0.10748
G1 X97.960 Y151.261 E0.11151
G1 X94.596 Y150.119 E0.11140
G1 X91.387 Y148.535 E0.11220
G1 X88.449 Y146.571 E0.11082
G1 X85.778 Y144.228 E0.11140
G1 X83.433 Y141.555 E0.11151
G1 X81.530 Y138.716 E0.10716
G1 X79.832 Y135.275 E0.12029
G1 X78.737 Y132.034 E0.10728
G1 X78.043 Y128.542 E0.11162
G1 X77.811 Y125.012 E0.11094
G1 X77.815 Y84.869 E1.25866
G1 X78.044 Y81.448 E0.10748
G1 X78.740 Y77.957 E0.11162
G1 X79.881 Y74.596 E0.11128
G1 X81.465 Y71.387 E0.11219
G1 X83.394 Y68.502 E0.10883
G1 F8640
G1 X85.555 Y66.019 E-0.76000
G1 E-0.04000 F2100.00000
G1 Z0.800 F10800.000
G1 X94.669 Y76.690
G1 Z0.200
G1 E0.80000 F2100.00000
G1 F1800
G1 X95.222 Y75.903 E0.03017
G1 X95.903 Y75.222 E0.03017
G1 X96.690 Y74.669 E0.03017
G1 X97.560 Y74.258 E0.03017
G1 X98.488 Y74.003 E0.03017
G1 X99.446 Y73.911 E0.03017
G1 X100.406 Y73.985 E0.03017
G1 X101.338 Y74.222 E0.03017
G1 X102.216 Y74.615 E0.03017
G1 X103.014 Y75.154 E0.03017
G1 X103.707 Y75.821 E0.03017
G1 X104.276 Y76.597 E0.03017
G1 X104.703 Y77.459 E0.03017
G1 X105.191 Y79.108 E0.05391
G1 X105.523 Y79.782 E0.02355
G1 X105.967 Y80.391 E0.02365
G1 X106.508 Y80.917 E0.02364
G1 X107.131 Y81.342 E0.02364
G1 X107.817 Y81.655 E0.02364
G1 X108.547 Y81.846 E0.02364
G1 X109.323 Y81.913 E0.02444
G1 X140.676 Y81.913 E0.98305
G1 X141.466 Y81.843 E0.02488
G1 X142.183 Y81.655 E0.02322
G1 X142.869 Y81.342 E0.02364
G1 X143.492 Y80.917 E0.02364
G1 X144.033 Y80.391 E0.02364
G1 X144.477 Y79.782 E0.02365
G1 X144.809 Y79.108 E0.02355
G1 X145.297 Y77.459 E0.05391
G1 X145.724 Y76.597 E0.03017
G1 X146.293 Y75.821 E0.03017
G1 X146.986 Y75.154 E0.03017
G1 X147.784 Y74.615 E0.03017
G1 X148.662 Y74.222 E0.03017
G1 X149.594 Y73.985 E0.03017
G1 X150.545 Y73.912 E0.02989
G1 X151.511 Y74.003 E0.03044
G1 X152.440 Y74.258 E0.03019
G1 X153.310 Y74.669 E0.03017
G1 X154.097 Y75.222 E0.03017
G1 X154.778 Y75.903 E0.03017
G1 X155.331 Y76.690 E0.03017
G1 X155.742 Y77.560 E0.03017
G1 X155.997 Y78.488 E0.03017
G1 X156.089 Y79.446 E0.03017
G1 X156.015 Y80.406 E0.03017
G1 X155.778 Y81.338 E0.03017
G1 X155.385 Y82.216 E0.03017
G1 X154.846 Y83.014 E0.03017
G1 X154.179 Y83.707 E0.03017
G1 X153.403 Y84.276 E0.03017
G1 X152.541 Y84.703 E0.03017
G1 X150.892 Y85.191 E0.05391
G1 X150.218 Y85.523 E0.02355
G1 X149.609 Y85.967 E0.02365
G1 X149.083 Y86.508 E0.02364
G1 X148.658 Y87.131 E0.02364
G1 X148.345 Y87.817 E0.02364
G1 X148.154 Y88.547 E0.02364
G1 X148.087 Y89.323 E0.02444
G1 X148.087 Y120.676 E0.98305
G1 X148.157 Y121.466 E0.02488
G1 X148.345 Y122.183 E0.02322
G1 X148.658 Y122.869 E0.02364
G1 X149.083 Y123.492 E0.02364
G1 X149.609 Y124.033 E0.02364
G1 X150.218 Y124.477 E0.02365
G1 X150.892 Y124.809 E0.02355
G1 X152.541 Y125.297 E0.05391
G1 X153.403 Y125.724 E0.03017
G1 X154.179 Y126.293 E0.03017
G1 X154.846 Y126.986 E0.03017
G1 X155.385 Y127.784 E0.03017
G1 X155.778 Y128.662 E0.03017
G1 X156.015 Y129.594 E0.03017
G1 X156.089 Y130.554 E0.03017
G1 X155.997 Y131.512 E0.03017
G1 X155.742 Y132.440 E0.03017
G1 X155.331 Y133.310 E0.03017
G1 X154.778 Y134.097 E0.03017
G1 X154.097 Y134.778 E0.03017
G1 X153.310 Y135.331 E0.03017
G1 X152.440 Y135.742 E0.03017
G1 X151.512 Y135.997 E0.03017
G1 X150.554 Y136.089 E0.03017
G1 X149.594 Y136.015 E0.03017
G1 X148.662 Y135.778 E0.03017
G1 X147.784 Y135.385 E0.03017
G1 X146.986 Y134.846 E0.03017
G1 X146.293 Y134.179 E0.03017
G1 X145.724 Y133.403 E0.03017
G1 X145.297 Y132.541 E0.03017
G1 X144.809 Y130.892 E0.05391
G1 X144.477 Y130.218 E0.02355
G1 X144.033 Y129.609 E0.02365
G1 X143.492 Y129.083 E0.02364
G1 X142.869 Y128.658 E0.02364
G1 X142.183 Y128.345 E0.02365
G1 X141.453 Y128.154 E0.02364
G1 X140.677 Y128.087 E0.02444
G1 X109.323 Y128.087 E0.98308
G1 X108.547 Y128.154 E0.02441
G1 X107.805 Y128.351 E0.02408
G1 X107.131 Y128.658 E0.02322
G1 X106.508 Y129.083 E0.02364
G1 X105.967 Y129.609 E0.02364
G1 X105.523 Y130.218 E0.02365
G1 X105.191 Y130.892 E0.02355
G1 X104.703 Y132.541 E0.05391
G1 X104.276 Y133.403 E0.03017
G1 X103.707 Y134.179 E0.03017
G1 X103.021 Y134.840 E0.02989
G1 X102.217 Y135.385 E0.03044
G1 X101.338 Y135.778 E0.03019
G1 X100.406 Y136.015 E0.03017
G1 X99.446 Y136.089 E0.03017
G1 X98.488 Y135.997 E0.03017
G1 X97.560 Y135.742 E0.03017
G1 X96.698 Y135.335 E0.02989
G1 X95.903 Y134.778 E0.03044
G1 X95.222 Y134.097 E0.03019
G1 X94.669 Y133.310 E0.03017
G1 X94.258 Y132.440 E0.03017
G1 X94.003 Y131.512 E0.03017
G1 X93.911 Y130.554 E0.03017
G1 X93.985 Y129.594 E0.03017
G1 X94.222 Y128.662 E0.03017
G1 X94.615 Y127.784 E0.03017
G1 X95.154 Y126.986 E0.03017
G1 X95.821 Y126.293 E0.03017
G1 X96.597 Y125.724 E0.03017
G1 X97.459 Y125.297 E0.03017
G1 X99.108 Y124.809 E0.05391
G1 X99.782 Y124.477 E0.02355
G1 X100.391 Y124.033 E0.02365
G1 X100.917 Y123.492 E0.02364
G1 X101.342 Y122.869 E0.02364
G1 X101.655 Y122.183 E0.02364
G1 X101.846 Y121.453 E0.02364
G1 X101.913 Y120.677 E0.02444
G1 X101.913 Y89.323 E0.98308
G1 X101.846 Y88.547 E0.02441
G1 X101.649 Y87.805 E0.02408
G1 X101.342 Y87.131 E0.02322
G1 X100.917 Y86.508 E0.02364
G1 X100.391 Y85.967 E0.02364
G1 X99.782 Y85.523 E0.02365
G1 X99.108 Y85.191 E0.02355
G1 X97.459 Y84.703 E0.05391
G1 X96.597 Y84.276 E0.03017
G1 X95.821 Y83.707 E0.03017
G1 X95.154 Y83.014 E0.03017
G1 X94.615 Y82.216 E0.03017
G1 X94.222 Y81.338 E0.03017
G1 X93.985 Y80.406 E0.03017
G1 X93.911 Y79.446 E0.03017
G1 X94.003 Y78.488 E0.03017
G1 X94.258 Y77.560 E0.03017
G1 X94.643 Y76.744 E0.02829
G1 X94.984 Y76.905 F10800.000
G1 F1800
G1 X95.512 Y76.146 E0.02898
G1 X96.146 Y75.512 E0.02813
G1 X96.880 Y74.996 E0.02813
G1 X97.692 Y74.613 E0.02813
G1 X98.557 Y74.375 E0.02813
G1 X99.450 Y74.289 E0.02813
G1 X100.344 Y74.358 E0.02813
G1 X101.214 Y74.579 E0.02813
G1 X102.032 Y74.946 E0.02813
G1 X102.776 Y75.448 E0.02813
G1 X103.423 Y76.070 E0.02813
G1 X103.953 Y76.794 E0.02813
G1 X104.351 Y77.598 E0.02813
G1 X104.838 Y79.246 E0.05390
G1 X105.199 Y79.978 E0.02557
G1 X105.681 Y80.640 E0.02567
G1 X106.269 Y81.210 E0.02567
G1 X106.945 Y81.671 E0.02567
G1 X107.690 Y82.011 E0.02567
G1 X108.482 Y82.219 E0.02567
G1 X109.307 Y82.290 E0.02596
G1 X140.693 Y82.290 E0.98408
G1 X141.531 Y82.216 E0.02640
G1 X142.310 Y82.011 E0.02524
G1 X143.055 Y81.671 E0.02567
G1 X143.731 Y81.210 E0.02567
G1 X144.319 Y80.640 E0.02567
G1 X144.801 Y79.978 E0.02567
G1 X145.162 Y79.246 E0.02557
G1 X145.649 Y77.598 E0.05390
G1 X146.047 Y76.794 E0.02813
G1 X146.577 Y76.070 E0.02813
G1 X147.224 Y75.448 E0.02813
G1 X147.968 Y74.946 E0.02813
G1 X148.786 Y74.579 E0.02813
G1 X149.656 Y74.358 E0.02813
G1 X150.542 Y74.290 E0.02785
G1 X151.443 Y74.375 E0.02840
G1 X152.308 Y74.613 E0.02814
G1 X153.120 Y74.996 E0.02813
G1 X153.854 Y75.512 E0.02813
G1 X154.488 Y76.146 E0.02813
G1 X155.004 Y76.880 E0.02813
G1 X155.387 Y77.692 E0.02813
G1 X155.625 Y78.557 E0.02813
G1 X155.711 Y79.450 E0.02813
G1 X155.642 Y80.344 E0.02813
G1 X155.421 Y81.214 E0.02813
G1 X155.054 Y82.032 E0.02813
G1 X154.552 Y82.776 E0.02813
G1 X153.930 Y83.423 E0.02813
G1 X153.206 Y83.953 E0.02813
G1 X152.402 Y84.351 E0.02813
G1 X150.754 Y84.838 E0.05390
G1 X150.022 Y85.199 E0.02557
G1 X149.360 Y85.681 E0.02567
G1 X148.790 Y86.269 E0.02567
G1 X148.329 Y86.945 E0.02567
G1 X147.989 Y87.690 E0.02567
G1 X147.781 Y88.482 E0.02567
G1 X147.710 Y89.307 E0.02596
G1 X147.710 Y120.693 E0.98408
G1 X147.784 Y121.531 E0.02640
G1 X147.989 Y122.310 E0.02524
G1 X148.329 Y123.055 E0.02567
G1 X148.790 Y123.731 E0.02567
G1 X149.360 Y124.319 E0.02567
G1 X150.022 Y124.801 E0.02567
G1 X150.754 Y125.162 E0.02557
G1 X152.402 Y125.649 E0.05390
G1 X153.206 Y126.047 E0.02813
G1 X153.930 Y126.577 E0.02813
G1 X154.552 Y127.224 E0.02813
G1 X155.054 Y127.968 E0.02813
G1 X155.421 Y128.786 E0.02813
G1 X155.642 Y129.656 E0.02813
G1 X155.711 Y130.550 E0.02813
G1 X155.625 Y131.443 E0.02813
G1 X155.387 Y132.308 E0.02813
G1 X155.004 Y133.120 E0.02813
G1 X154.488 Y133.854 E0.02813
G1 X153.854 Y134.488 E0.02813
G1 X153.120 Y135.004 E0.02813
G1 X152.308 Y135.387 E0.02813
G1 X151.443 Y135.625 E0.02813
G1 X150.550 Y135.711 E0.02813
G1 X149.656 Y135.642 E0.02813
G1 X148.786 Y135.421 E0.02813
G1 X147.968 Y135.054 E0.02813
G1 X147.224 Y134.552 E0.02813
G1 X146.577 Y133.930 E0.02813
G1 X146.047 Y133.206 E0.02813
G1 X145.649 Y132.402 E0.02813
G1 X145.162 Y130.754 E0.05390
G1 X144.801 Y130.022 E0.02557
G1 X144.319 Y129.360 E0.02567
G1 X143.731 Y128.790 E0.02567
G1 X143.055 Y128.329 E0.02567
G1 X142.310 Y127.989 E0.02567
G1 X141.518 Y127.781 E0.02567
G1 X140.693 Y127.710 E0.02596
G1 X109.307 Y127.710 E0.98409
G1 X108.482 Y127.781 E0.02595
G1 X107.677 Y127.995 E0.02611
G1 X106.945 Y128.329 E0.02524
G1 X106.269 Y128.790 E0.02567
G1 X105.681 Y129.360 E0.02567
G1 X105.199 Y130.022 E0.02567
G1 X104.838 Y130.754 E0.02557
G1 X104.351 Y132.402 E0.05390
G1 X103.953 Y133.206 E0.02813
G1 X103.423 Y133.930 E0.02813
G1 X102.782 Y134.546 E0.02785
G1 X102.033 Y135.054 E0.02840
G1 X101.214 Y135.421 E0.02814
G1 X100.344 Y135.642 E0.02813
G1 X99.450 Y135.711 E0.02813
G1 X98.557 Y135.625 E0.02813
G1 X97.692 Y135.387 E0.02813
G1 X96.888 Y135.008 E0.02785
G1 X96.146 Y134.488 E0.02840
G1 X95.512 Y133.854 E0.02814
G1 X94.996 Y133.120 E0.02813
G1 X94.613 Y132.308 E0.02813
G1 X94.375 Y131.443 E0.02813
G1 X94.289 Y130.550 E0.02813
G1 X94.358 Y129.656 E0.02813
G1 X94.579 Y128.786 E0.02813
G1 X94.946 Y127.968 E0.02813
G1 X95.448 Y127.224 E0.02813
G1 X96.070 Y126.577 E0.02813
G1 X96.794 Y126.047 E0.02813
G1 X97.598 Y125.649 E0.02813
G1 X99.246 Y125.162 E0.05390
G1 X99.978 Y124.801 E0.02557
G1 X100.640 Y124.319 E0.02567
G1 X101.210 Y123.731 E0.02567
G1 X101.671 Y123.055 E0.02567
G1 X102.011 Y122.310 E0.02567
G1 X102.219 Y121.518 E0.02567
G1 X102.290 Y120.693 E0.02596
G1 X102.290 Y89.307 E0.98409
G1 X102.219 Y88.482 E0.02595
G1 X102.006 Y87.677 E0.02611
G1 X101.671 Y86.945 E0.02524
G1 X101.210 Y86.269 E0.02567
G1 X100.640 Y85.681 E0.02567
G1 X99.978 Y85.199 E0.02567
G1 X99.246 Y84.838 E0.02557
G1 X97.598 Y84.351 E0.05390
G1 X96.794 Y83.953 E0.02813
G1 X96.070 Y83.423 E0.02813
G1 X95.448 Y82.776 E0.02813
G1 X94.946 Y82.032 E0.02813
G1 X94.579 Y81.214 E0.02813
G1 X94.358 Y80.344 E0.02813
G1 X94.289 Y79.450 E0.02813
G1 X94.375 Y78.557 E0.02813
G1 X94.613 Y77.692 E0.02813
G1 X94.958 Y76.959 E0.02539
G1 X94.784 Y76.559 F10800.000
G1 F8640
G1 X95.512 Y76.146 E-0.22707
G1 X96.146 Y75.512 E-0.20715
G1 X96.880 Y74.996 E-0.20716
G1 X97.345 Y74.777 E-0.11862
G1 E-0.04000 F2100.00000
G1 Z0.800 F10800.000
G1 X85.633 Y70.139
G1 Z0.200
G1 E0.80000 F2100.00000
G1 F1800
G1 X87.738 Y67.738 E0.10012
G1 X90.139 Y65.633 E0.10012
G1 X92.794 Y63.859 E0.10012
G1 X95.658 Y62.447 E0.10012
G1 X98.651 Y61.431 E0.09911
G1 X101.814 Y60.797 E0.10114
G1 X105.019 Y60.587 E0.10071
G1 X144.981 Y60.587 E1.25297
G1 X148.154 Y60.795 E0.09971
G1 X151.319 Y61.420 E0.10114
G1 X154.342 Y62.447 E0.10011
G1 X157.206 Y63.859 E0.10012
G1 X159.861 Y65.633 E0.10012
G1 X162.262 Y67.738 E0.10012
G1 X164.367 Y70.139 E0.10012
G1 X166.141 Y72.794 E0.10012
G1 X167.539 Y75.629 E0.09911
G1 X168.580 Y78.682 E0.10114
G1 X169.203 Y81.814 E0.10011
G1 X169.413 Y85.019 E0.10072
G1 X169.413 Y124.981 E1.25297
G1 X169.203 Y128.186 E0.10072
G1 X168.580 Y131.318 E0.10012
G1 X167.553 Y134.342 E0.10012
G1 X166.141 Y137.206 E0.10012
G1 X164.367 Y139.861 E0.10012
G1 X162.262 Y142.262 E0.10012
G1 X159.861 Y144.367 E0.10012
G1 X157.206 Y146.141 E0.10012
G1 X154.342 Y147.553 E0.10012
G1 X151.318 Y148.580 E0.10012
G1 X148.186 Y149.203 E0.10012
G1 X144.981 Y149.413 E0.10072
G1 X105.019 Y149.413 E1.25297
G1 X101.814 Y149.203 E0.10072
G1 X98.682 Y148.580 E0.10012
G1 X95.658 Y147.553 E0.10012
G1 X92.794 Y146.141 E0.10012
G1 X90.139 Y144.367 E0.10012
G1 X87.738 Y142.262 E0.10012
G1 X85.633 Y139.861 E0.10012
G1 X83.859 Y137.206 E0.10012
G1 X82.447 Y134.342 E0.10012
G1 X81.420 Y131.318 E0.10012
G1 X80.797 Y128.186 E0.10012
G1 X80.587 Y124.981 E0.10072
G1 X80.587 Y85.019 E1.25297
G1 X80.797 Y81.814 E0.10072
G1 X81.420 Y78.682 E0.10012
G1 X82.447 Y75.658 E0.10012
G1 X83.859 Y72.794 E0.10012
G1 X85.600 Y70.189 E0.09824
G1 X85.286 Y69.980 F10800.000
G1 F1800
G1 X87.471 Y67.471 E0.10430
G1 X89.909 Y65.333 E0.10167
G1 X92.605 Y63.532 E0.10167
G1 X95.513 Y62.097 E0.10167
G1 X98.553 Y61.066 E0.10065
G1 X101.764 Y60.423 E0.10269
G1 X105.007 Y60.210 E0.10188
G1 X144.993 Y60.210 E1.25374
G1 X148.203 Y60.420 E0.10087
G1 X151.416 Y61.055 E0.10269
G1 X154.487 Y62.097 E0.10167
G1 X157.395 Y63.532 E0.10167
G1 X160.091 Y65.333 E0.10167
G1 X162.529 Y67.471 E0.10167
G1 X164.667 Y69.909 E0.10167
G1 X166.468 Y72.605 E0.10167
G1 X167.888 Y75.484 E0.10065
G1 X168.945 Y78.584 E0.10269
G1 X169.577 Y81.764 E0.10167
G1 X169.790 Y85.007 E0.10189
G1 X169.790 Y124.993 E1.25374
G1 X169.577 Y128.236 E0.10189
G1 X168.945 Y131.416 E0.10167
G1 X167.903 Y134.487 E0.10167
G1 X166.468 Y137.395 E0.10167
G1 X164.667 Y140.091 E0.10167
G1 X162.529 Y142.529 E0.10167
G1 X160.091 Y144.667 E0.10167
G1 X157.395 Y146.468 E0.10167
G1 X154.487 Y147.903 E0.10167
G1 X151.416 Y148.945 E0.10167
G1 X148.236 Y149.577 E0.10167
G1 X144.993 Y149.790 E0.10189
G1 X105.007 Y149.790 E1.25374
G1 X101.764 Y149.577 E0.10189
G1 X98.584 Y148.945 E0.10167
G1 X95.513 Y147.903 E0.10167
G1 X92.605 Y146.468 E0.10167
G1 X89.909 Y144.667 E0.10167
G1 X87.471 Y142.529 E0.10167
G1 X85.333 Y140.091 E0.10167
G1 X83.532 Y137.395 E0.10167
G1 X82.097 Y134.487 E0.10167
G1 X81.055 Y131.416 E0.10167
G1 X80.423 Y128.236 E0.10167
G1 X80.210 Y124.993 E0.10189
G1 X80.210 Y85.007 E1.25374
G1 X80.423 Y81.764 E0.10189
G1 X81.055 Y78.584 E0.10167
G1 X82.097 Y75.513 E0.10167
G1 X83.532 Y72.605 E0.10167
G1 X85.253 Y70.029 E0.09713
G1 X85.683 Y70.031 F10800.000
G1 F8640
G1 X87.409 Y67.543 E-0.76000
G1 E-0.04000 F2100.00000
G1 Z0.800 F10800.000
G1 X94.183 Y81.943
G1 Z0.200
G1 E0.80000 F2100.00000
G1 F1800
G1 X84.534 Y72.293 E0.42938
G1 X84.748 Y71.973 E0.01214
G1 X93.867 Y81.092 E0.40582
